chrome/urlbar/permissions/popup.svg

<svg xmlns="http://www.w3.org/2000/svg" width="16" height="16" viewBox="0 0 16 16">
   <path
   style="fill:context-fill;fill-opacity:context-fill-opacity"
   d="M 0.5 0 C 0.37204 0 0.24411438 0.048849375 0.14648438 0.14648438 C -0.048785625 0.34174437 -0.048785625 0.65825563 0.14648438 0.85351562 L 2.0292969 2.7363281 C 1.3980569 3.2863181 1 4.09703 1 5 L 1 12 C 1 13.6569 2.34315 15 4 15 L 11 15 C 11.903 15 12.713771 14.602003 13.263672 13.970703 L 15.146484 15.853516 C 15.341784 16.048715 15.658216 16.048715 15.853516 15.853516 C 16.048715 15.658216 16.048715 15.341784 15.853516 15.146484 L 0.85351562 0.14648438 C 0.75588563 0.048849375 0.62796 0 0.5 0 z M 8.5 1 C 8.2239 1 8 1.22386 8 1.5 C 8 1.77614 8.2239 2 8.5 2 L 13.292969 2 L 8.7070312 6.5859375 L 9.4140625 7.2929688 L 14 2.7070312 L 14 7.5 C 14 7.77614 14.2239 8 14.5 8 C 14.7761 8 15 7.77614 15 7.5 L 15 1.5 L 15 1.4960938 C 14.9996 1.4293937 14.986891 1.3666737 14.962891 1.3085938 C 14.938491 1.2496238 14.901416 1.1944144 14.853516 1.1464844 C 14.805516 1.0985444 14.750406 1.0615094 14.691406 1.0371094 C 14.632406 1.0126594 14.5678 1 14.5 1 L 8.5 1 z M 4.1210938 2 L 5.1210938 3 L 6.5 3 C 6.77614 3 7 2.77614 7 2.5 C 7 2.22386 6.77614 2 6.5 2 L 4.1210938 2 z M 2.7402344 3.4472656 L 7.2929688 8 L 7.1464844 8.1464844 C 6.9512144 8.3417844 6.9512144 8.6582156 7.1464844 8.8535156 C 7.3417444 9.0487156 7.6582556 9.0487156 7.8535156 8.8535156 L 8 8.7070312 L 12.552734 13.259766 C 12.186034 13.711167 11.6269 14 11 14 L 4 14 C 2.89543 14 2 13.104599 2 12 L 2 5 C 2 4.37311 2.2888544 3.8139656 2.7402344 3.4472656 z M 13.5 9 C 13.2239 9 13 9.2239 13 9.5 L 13 10.878906 L 14 11.878906 L 14 9.5 C 14 9.2239 13.7761 9 13.5 9 z " />
</svg>

<svg xmlns="http://www.w3.org/2000/svg" width="16" height="16">
  <path style="fill:context-fill;fill-opacity:context-fill-opacity" d="M.5 0a.498.498 0 0 0-.354.854L2.03 2.736A2.994 2.994 0 0 0 1 5v7a3 3 0 0 0 3 3h7c.903 0 1.714-.398 2.264-1.03l1.882 1.884a.5.5 0 0 0 .708-.708l-15-15A.498.498 0 0 0 .5 0zm8 1a.5.5 0 0 0 0 1h4.793L8.707 6.586l.707.707L14 2.707V7.5a.5.5 0 0 0 1 0V1.496A.495.495 0 0 0 14.5 1h-6zM4.121 2l1 1H6.5a.5.5 0 0 0 0-1H4.121zm-1.38 1.447L7.292 8l-.147.146a.5.5 0 1 0 .708.708L8 8.707l4.553 4.553c-.367.451-.926.74-1.553.74H4a2 2 0 0 1-2-2V5c0-.627.289-1.186.74-1.553zM13.5 9a.5.5 0 0 0-.5.5v1.379l1 1V9.5a.5.5 0 0 0-.5-.5z"/>
</svg>
